X:139
T: ES GIENG EIN MAEDCHEN GRASEN WOHL
N: E0071D
O: Europa, Mitteleuropa, Deutschland, Dillkreis
R: erzaehlendes Volks - Lied, Sage, Liebe
M: 4/4
L: 1/8
K: G
d2 | G2B2B2d2 | G2B2B2
d2 | d3cc2B2 | d4A2
AB | c2e2e2c2 | B2d2d2
B2 | A2A2d2dc | B2d2d2
dd | c2e2e2c2 | B2d2d2
B2 | A2A2d2dc | B4z2

@@@ Tune index: 3789
